!!!!SEGMENT: pl-wn--sd-xvi-o-263_anonim--kancjonal-zamoyskich-piesn-o-zmartwychwstaniu-panskim-zawitaj-k-nam-swieta-wielkanocy.krn
!!!cenid: 15xx:819
!!!COM: Anonim
!!!COM-rismID: pe30004985
!!!CDT:
!!!CNT:
!!!GTL: Kancjonał Zamoyskich
!!!OTL: Pieśń o zmartwychwstaniu Pańskim/Zawitaj k’nam święta wielkanocy
!!!PDT: 1558
!!!AGN:
!!!SMS-siglum: PL-Wn
!!!SMS-shelfmark: SD XVI.O.263
!!!SMS-shelfwork: G
!!!SMS-variant:
!!!SMS-altvar:
!!!NIFC-rismSourceID: 990072142
!!!NIFC-islandoraID:
!!!URL-pdf-islandora:
!!!URL-scan: https://polona.pl/item/piesn-o-zmartwychwstaniu-panskim-w-kthorey-sie-zamyka-sposob-vsprawiedliwienia-naszego,MTE3MTM1OA/3 @EN{Scan on Polona} @PL{Skany w portalu Polona}
!!!ONB-nifc: UWAGA: proszę zapisywać tylko teksty występujące bezpośrednio pod nutami
!!!AIN: 1 alto 1 bass 1 soprn 1 tenor
!!!key: d
**kern	**kern	**text	**mod-text	**kern	**kern
*part4	*part3	*part3	*part3	*part2	*part1
*staff4	*staff3	*staff3	*staff3	*staff2	*staff1
*I"[BAS.]	*I"TENOR.	*	*	*I"[ALT.]	*I"[CANTVS.]
*I'B	*I'T	*	*	*I'A	*I'S
*Ibass	*Itenor	*	*	*Ialto	*Isoprn
*ICvox	*ICvox	*	*	*ICvox	*ICvox
*mI"Basso	*mI"Tenore	*	*	*mI"Alto	*mI"Soprano
*clefF4	*clefC4	*	*	*clefC3	*clefC1
*	*mclefGv2	*	*	*mclefG2	*mclefG2
*k[b-]	*k[b-]	*	*	*k[b-]	*k[b-]
*d:	*d:	*	*	*d:	*d:
*M2/1	*M2/1	*	*	*M2/1	*M2/1
*met(C|)	*met(C|)	*	*	*met(C|)	*met(C|)
*mmet(c|)	*mmet(c|)	*	*	*mmet(c|)	*mmet(c|)
*tacet	*	*	*	*tacet	*tacet
=1-	=1-	=1-	=1-	=1-	=1-
*	*xywh-#5:500,329,2095,768	*	*	*	*
0ryy	1d	Za-	Za-	0ryy	0ryy
.	1A	-wi-	-wi-	.	.
=2-	=2-	=2-	=2-	=2-	=2-
0ryy	1c	-thay	-taj	0ryy	0ryy
.	1d	k’nam	k’nam	.	.
=3-	=3-	=3-	=3-	=3-	=3-
0ryy	1f	ſwię-	świę-	0ryy	0ryy
.	2e\	-ta	-ta	.	.
.	1d\	wiel-	wiel-	.	.
=4-	=4-	=4-	=4-	=4-	=4-
0ryy	.	.	.	0ryy	0ryy
.	2c\	-ka	-ka	.	.
*	*custos:B	*	*	*	*
!	!LO:LB:g=original	!	!	!	!
*	*xywh-#5:727,1074,1874,576	*	*	*	*
.	1B-	no-	no-	.	.
=5-	=5-	=5-	=5-	=5-	=5-
0ryy	0A	-cy/	-cy	0ryy	0ryy
=6-	=6-	=6-	=6-	=6-	=6-
0ryy	1f	w kto-	w któ-	0ryy	0ryy
.	1d	-rą	-rą	.	.
=7-	=7-	=7-	=7-	=7-	=7-
0ryy	1c	wſzyt-	wszyt-	0ryy	0ryy
.	1A	-ki	-ki	.	.
=8-	=8-	=8-	=8-	=8-	=8-
0ryy	1c	Dy-	Di-	0ryy	0ryy
.	2c\	-a-	-a-	.	.
*	*custos:A	*	*	*	*
!	!LO:LB:g=original	!	!	!	!
*	*xywh-#5:721,1627,1891,564	*	*	*	*
.	1A\	-bel-	-bel-	.	.
=9-	=9-	=9-	=9-	=9-	=9-
0ryy	.	.	.	0ryy	0ryy
.	2B-\	-ſkie	-skie	.	.
.	1G	mo-	mo-	.	.
=10-	=10-	=10-	=10-	=10-	=10-
0ryy	1F	-cy/	-cy	0ryy	0ryy
.	1A	Kry-	Kry-	.	.
=11-	=11-	=11-	=11-	=11-	=11-
0ryy	2G/	-ſtus	-stus	0ryy	0ryy
.	2F/	po-	po-	.	.
*	*custos:E	*	*	*	*
!	!LO:LB:g=original	!	!	!	!
*	*xywh-#5:714,2134,1932,599	*	*	*	*
.	1E	-rá-	-ra-	.	.
=12-	=12-	=12-	=12-	=12-	=12-
0ryy	0D	-źił/	-ził	0ryy	0ryy
=13-	=13-	=13-	=13-	=13-	=13-
0ryy	1A	y	i	0ryy	0ryy
.	1c	ná	na	.	.
=14-	=14-	=14-	=14-	=14-	=14-
0ryy	1d	wie-	wie-	0ryy	0ryy
.	1A	-ki	-ki	.	.
=15-	=15-	=15-	=15-	=15-	=15-
!	!LO:TX:t=P:problem:błędnie custos:G zamiast custos:B	!	!	!	!
0ryy	1G	przez	przez	0ryy	0ryy
*	*custos:G	*	*	*	*
!	!LO:LB:g=original	!	!	!	!
*	*xywh-#5:714,2705,1932,605	*	*	*	*
.	2B-\	ſwą	swą	.	.
.	1A\	smierć	śmierć	.	.
=16-	=16-	=16-	=16-	=16-	=16-
0ryy	.	.	.	0ryy	0ryy
.	4G/	po-	po-	.	.
.	4F/	.	.	.	.
.	1E	-ká-	-ka-	.	.
=17-	=17-	=17-	=17-	=17-	=17-
0ryy	0Dl/	-źił.	-ził.	0ryy	0ryy
==	==	==	==	==	==
*-	*-	*-	*-	*-	*-
!!!system-decoration: [(*)]
!!!RDF**kern: > = above
!!!RDF**kern: < = below
!!LO:MO:ori
!!!RDF**kern: l = terminal long
!!LO:MO:end
!!!filter-modern: sic -sq | shed -e "s/TX(.*):t=P:/tx$1:t=P:/LG" | shed -k -e "s/LO:N:vis/LO:n:vis:/L" | shed -e "s/^(\d+[\/\\]right)/$1yy/I;s/^(\d+[\/\\]left)/$1yy/I" | shed -e "s/-//B" | shed -e "s/^custos:/Xcustos:/I" | shed -k -e "s/LO:N:acc/LO:n:acc:/L" | autostem -r | tie -s | humtr -p | modori -m
!!!ENC: Katarzyna Serwa
!!!END: 2022-05-09
!!!ENC: Mateusz Solarz
!!!END: 2022-04-26
!!!ENC-modern: Andrzej Borzym
!!!END-modern: 2022-07-23
!!!IIIF: https://polona.pl/iiif/item/MTE3MTM1OA/manifest.json
!!!ENC-iiif: Emilia Ziętek
!!!END-iiif: 2022-09-03
!!!YEC: Copyright 2022 Narodowy Instytut Fryderyka Chopina (https://polishscores.org)
!!!YEM: Licence CC BY 4.0 (https://creativecommons.org/licenses/by/4.0)
